X: 1
T: Bony Smith's Quadrille
S: Lee Owens and Viola Ruth "American Square Dances of the West and Southwest"
S: Lee Owens and Viola Ruth "Advanced Square Dance Figuress of the West and Southwest" p.48
R: jig
Z: 2010 John Chambers <jc:trillian.mit.edu>
N: The notation has a second time signature of 2/4, and each triplet is marked with a "3".
M: 6/8
L: 1/8
K: C
g |\
"C"geg age | ccc G2c | "G7"Bcd A2B | "C"[cG]BA G2g |
   geg age | ccc G2c | "G7"Bcd A2B | "C"[c3E3] [c3E3] :|
|:"C"G[cE][cE] [cE][cE][cE] | G[cE][cE]    cBA | "G7"G[BG][BG] [BG][BG][BG] | G[BG][BG] BAG |
  "C"G[cE][cE] [cE][cE][cE] | G[cE][cE] [cE]BA | "G7"[e3c3E3] A2B | "C"[c3E3] [c2E2] :|

%%sep 2 1 500

